X: 2
T:Cowboy Jig
M:6/8
L:1/8
R:Jig
K:G
BA||:"G"GDE G2A|"G"Bgf gdB|"D7"ABc "G"BGA|"G" B2{A}B "D"A2 B/2A/2|!
"G"GDE G2A|"G"Bgf gdB|"D7"ABc B2A|"G"BGG G2:||!
Bd|"Em"e2e e2e|"Em"egf edB|"D"d2 d d2d|"D"dge dBG|!
"C"c2d e2d|"C"egB "D"A2e|"G"dBG "D"B2A|"G"BGG G2:||
% Output from ABC2Win  Version 2.1 i on 10/16/2004
